icons/image-cross.svg

<svg xmlns="http://www.w3.org/2000/svg" viewBox="0 0 24 24" fill="currentColor">
  <path d="M7 3.75C5.21421 3.75 3.75 5.21421 3.75 7v6.5214l4.40373-3.2242c1.10874-.82869 2.62317-.68103 3.57657.2724l2.6204 2.6205.6604-.5588c1.1333-.9871 2.6557-.7944 3.6828.1044l.0079.0069 1.5482 1.4335V9c0-.41421.3358-.75.75-.75s.75.33579.75.75v8c0 2.6142-2.1358 4.75-4.75 4.75H7c-2.61421 0-4.75-2.1358-4.75-4.75V7c0-2.61421 2.13579-4.75 4.75-4.75h5c.4142 0 .75.33579.75.75s-.3358.75-.75.75H7Zm13.25 12.4704-2.5512-2.3623c-.5698-.4936-1.2407-.4998-1.7049-.0936l-.0094.0082-.5694.4817 4.3864 4.3865c.2848-.4825.4485-1.0437.4485-1.6409v-.7796ZM3.75 17v-1.6196l5.29306-3.8753.00003.0001L9.05 11.5c.49093-.3682 1.1742-.3151 1.6197.1303l8.0946 8.0947c-.5091.3317-1.1155.525-1.7643.525H7c-1.78579 0-3.25-1.4642-3.25-3.25ZM18.6303 4.16987c.2929.29289.2929.76776 0 1.06066l-1.1697 1.16966 1.1697 1.16967c.2929.29289.2929.76777 0 1.06066s-.7678.29289-1.0607 0L16.4 7.46085l-1.1697 1.16967c-.2929.29289-.7678.29289-1.0607 0-.2929-.29289-.2929-.76777 0-1.06066l1.1697-1.16967-1.1697-1.16966c-.2929-.2929-.2929-.76777 0-1.06066.2929-.2929.7678-.2929 1.0607-.00001L16.4 5.33953l1.1696-1.16967c.2929-.29289.7678-.29289 1.0607.00001Z"/>
</svg>

<svg width="24" height="24" viewBox="0 0 24 24" fill="none" xmlns="http://www.w3.org/2000/svg">
<path fill-rule="evenodd" clip-rule="evenodd" d="M7 3.75C5.21421 3.75 3.75 5.21421 3.75 7V13.5214L8.15373 10.2972C9.26247 9.46851 10.7769 9.61617 11.7303 10.5696L14.3507 13.1901L15.0111 12.6313C16.1444 11.6442 17.6668 11.8369 18.6939 12.7357L18.7018 12.7426L20.25 14.1761V9C20.25 8.58579 20.5858 8.25 21 8.25C21.4142 8.25 21.75 8.58579 21.75 9V17C21.75 19.6142 19.6142 21.75 17 21.75H7C4.38579 21.75 2.25 19.6142 2.25 17V7C2.25 4.38579 4.38579 2.25 7 2.25H12C12.4142 2.25 12.75 2.58579 12.75 3C12.75 3.41421 12.4142 3.75 12 3.75H7ZM20.25 16.2204L17.6988 13.8581C17.129 13.3645 16.4581 13.3583 15.9939 13.7645L15.9845 13.7727L15.4151 14.2544L19.8015 18.6409C20.0863 18.1584 20.25 17.5972 20.25 17V16.2204ZM3.75 17V15.3804L9.04306 11.5051L9.04309 11.5052L9.05 11.5C9.54093 11.1318 10.2242 11.1849 10.6697 11.6303L18.7643 19.725C18.2552 20.0567 17.6488 20.25 17 20.25H7C5.21421 20.25 3.75 18.7858 3.75 17ZM18.6303 4.16987C18.9232 4.46276 18.9232 4.93763 18.6303 5.23053L17.4606 6.40019L18.6303 7.56986C18.9232 7.86275 18.9232 8.33763 18.6303 8.63052C18.3374 8.92341 17.8625 8.92341 17.5696 8.63052L16.4 7.46085L15.2303 8.63052C14.9374 8.92341 14.4625 8.92341 14.1696 8.63052C13.8767 8.33763 13.8767 7.86275 14.1696 7.56986L15.3393 6.40019L14.1696 5.23053C13.8767 4.93763 13.8767 4.46276 14.1696 4.16987C14.4625 3.87697 14.9374 3.87697 15.2303 4.16986L16.4 5.33953L17.5696 4.16986C17.8625 3.87697 18.3374 3.87697 18.6303 4.16987Z" fill="black"/>
</svg>
